X:2064
T:Branle de village
R:Branle
C:trad
A:Normandie
O:France
M:2/4
L:1/8
Q:1/4=95
K:A
Ae|ed cB|A2|:ce|ed ce|ed ce|ed cB|A2:|
|:AB|c/2B/2A cc|1B2 Ac|BA GF|E2:|2B2 Ae|ed cB|A2||


